X:4378
L:1/8
Q:1/8=240
M:2/4
K:Edor
|: E>F GA | Be B2 | AF DF | EF DF | E>F GA | Be B2 | AF DF | E2 E>B :| ee B>B | ee B2 | AF DF | 
 EF D>B | ee B>B | ee B2 | AF DF | E2 E>B | ee B>B | ee B2 | AF DF | EF DF | E>F GA | Be B2 | 
 AF DF | E2 E2 ||

